X:263
T:Dark Girl Dressed in Blue 2
R:polka
S:Ireland
L:1/4
M:2/4
K:D
|FA |Ad|Bd |A>F|GB |AF/A/|BE |G/F/ E/D/|
|FA |Ad|Bd |A>F|GB |A/B/ A/G/|FD |D2:|
|:FA |A/B/ d/e/|ff/d/ |ed|Bd |AF/A/|BE |G/F/ E/D/|
|FA |A/B/ d/e/|ff/d/ |ed|Bd |A/B/ A/G/|FD |D2:|
